X:188
%%pagewidth 8in
%%vocalfont Baskerville10Pro 13
T:Tom Tinker's my true-love
M:3/4
L:1/8
K:G
%%score 1 2
V:1 clef-treble
V:2 clef-bass octave=-1
[V:1]G2|G2B2G2 & D6|A2c2(EF) & E4x2|G2F2E2 & D2C4|[B,D]4[Cc]2|B3 A(Bc) & D4D2|
w:Tom Tin-ker's my true love, And* I am his dear, And I will go*
w:For~of all the young men* he* has the best way; All~the day he will*
[V:2]z2|[GB]6|[Cc]4[DA]2|[B,G]2[CG]4|[G,G]4[EG]2|[DG]4[CF]2|
[V:1]d2B2G2 & D4B,2|[EA]2F2D2 & C6|[B,G]4:||G2|B4G2 & D6|c4(EF) & E4x2|G2F2E2 & D2C4|
w:with him, his bud-get to bear, This way, that way, which-*e-ver you
w:fid-dle, at night he will play.|||||
[V:2][B,G]4E2|C2D4|G,4:||z2|[GB]6|[Cc]4[DA]2|[B,G]2[CG]4|
[V:1][B,D]4[Cc]2|B3 A(Bc) & D4D2|d2B2G2 & D4B,2|[EA]2F2D2 & C6|[B,G]4||
w:will, I'm sure I say* no-thing that you can take ill.
[V:2][G,G]4[EG]2|[DG]4[CF]2|[B,G]4E2|C2D4|G,4||

